X: 24852
T: Maggie's Pancakes
R: reel
M: 4/4
K: Bminor
fB (3BBB fgfe|dBAB GBdB|cAAd AAeA|Aaec ABce|
fB (3BBB fgfe|dBAB GBdB|cAdA eAce|afec Bcde:|
|:f2dB GBdB|caec dB (3BBB|f2dB GBdB|caec Bcde|
fd (3ddd fgfe|dBAB GBdB|cAdA eAce|afec Bcde:|

